resources/haticons/SVG/text-height.svg

<!-- Generated by IcoMoon.io -->
<svg version="1.1" xmlns="http://www.w3.org/2000/svg" width="24" height="24" viewBox="0 0 24 24">
<title>text-height</title>
<path d="M21 18h3l-3.75 4.5-3.75-4.5h3v-12h-3l3.75-4.5 3.75 4.5h-3zM15 1.5v6l-1.5-3h-4.5v16.5h3v1.5h-9v-1.5h3v-16.5h-4.5l-1.5 3v-6z"></path>
</svg>

<svg xmlns="http://www.w3.org/2000/svg" width="24" height="24"><path d="M21 18h3l-3.75 4.5L16.5 18h3V6h-3l3.75-4.5L24 6h-3zM15 1.5v6l-1.5-3H9V21h3v1.5H3V21h3V4.5H1.5L0 7.5v-6z"/></svg>
